events/images/event.svg

<?xml version="1.0" encoding="UTF-8" standalone="no"?>
<svg
   width="492"
   height="492"
   overflow="hidden"
   version="1.1"
   id="svg14"
   sodipodi:docname="event.svg"
   inkscape:version="1.4.3 (0d15f75, 2025-12-25)"
   xmlns:inkscape="http://www.inkscape.org/namespaces/inkscape"
   xmlns:sodipodi="http://sodipodi.sourceforge.net/DTD/sodipodi-0.dtd"
   xmlns="http://www.w3.org/2000/svg"
   xmlns:svg="http://www.w3.org/2000/svg">
  <defs
     id="defs14" />
  <sodipodi:namedview
     id="namedview14"
     pagecolor="#ffffff"
     bordercolor="#000000"
     borderopacity="0.25"
     inkscape:showpageshadow="2"
     inkscape:pageopacity="0.0"
     inkscape:pagecheckerboard="0"
     inkscape:deskcolor="#d1d1d1"
     inkscape:zoom="0.6875"
     inkscape:cx="245.81818"
     inkscape:cy="246.54545"
     inkscape:window-width="1024"
     inkscape:window-height="1186"
     inkscape:window-x="0"
     inkscape:window-y="25"
     inkscape:window-maximized="0"
     inkscape:current-layer="svg14" />
  <g
     id="g14"
     transform="translate(-394,-114)">
    <path
       d="M 394,270.043 C 394,183.863 463.863,114 550.043,114 H 729.957 C 816.137,114 886,183.863 886,270.043 V 449.957 C 886,536.137 816.137,606 729.957,606 H 550.043 C 463.863,606 394,536.137 394,449.957 Z"
       fill="#fceebd"
       fill-rule="evenodd"
       id="path1" />
    <g
       id="g13">
      <g
         id="g12">
        <g
           id="g11">
          <path
             d="M 660.286,321.776 H 622.66 c -3.538,0 -6.406,2.868 -6.406,6.406 0,3.538 2.868,6.407 6.406,6.407 h 37.626 c 3.538,0 6.407,-2.869 6.407,-6.407 0,-3.538 -2.869,-6.406 -6.407,-6.406 z"
             fill="#00883a"
             id="path2" />
          <path
             d="m 641.452,355.729 c 7.218,-0.007 13.194,-5.61 13.667,-12.812 h -27.291 c 0.451,7.196 6.414,12.804 13.624,12.812 z"
             fill="#00883a"
             id="path3" />
          <path
             d="m 641.452,199.587 v 0 c -29.827,0.204 -54.049,24.16 -54.581,53.984 v 1.879 c 0.145,6.55 1.431,13.025 3.801,19.133 2.207,5.707 5.418,10.972 9.481,15.546 5.065,6.396 9.365,13.362 12.813,20.756 0.716,1.423 2.165,2.328 3.758,2.349 h 49.542 c 1.592,-0.021 3.041,-0.926 3.758,-2.349 3.451,-7.392 7.751,-14.358 12.812,-20.756 4.037,-4.586 7.233,-9.848 9.439,-15.546 2.305,-6.052 3.59,-12.446 3.801,-18.919 v -1.88 c -0.441,-29.913 -24.708,-53.991 -54.624,-54.197 z m 42.025,55.521 c -0.177,5.043 -1.187,10.022 -2.99,14.735 -1.683,4.232 -4.097,8.135 -7.132,11.531 -4.798,5.815 -8.911,12.164 -12.257,18.92 h -39.249 c -3.362,-6.757 -7.489,-13.106 -12.3,-18.92 -3.022,-3.398 -5.421,-7.301 -7.09,-11.531 -1.802,-4.713 -2.812,-9.692 -2.989,-14.735 v -1.537 c 0.394,-22.944 19.035,-41.377 41.982,-41.513 v 0 c 22.955,0.136 41.608,18.562 42.025,41.513 z"
             fill="#00883a"
             id="path4" />
          <path
             d="m 620.867,267.451 22.592,-44.118 v 25.54 l 23.447,-4.655 -23.447,43.178 v -25.07 z"
             fill="#00883a"
             id="path5" />
          <path
             d="m 763.171,383.618 c 0,18.351 -14.876,33.227 -33.227,33.227 -18.351,0 -33.227,-14.876 -33.227,-33.227 0,-18.351 14.876,-33.227 33.227,-33.227 18.351,0 33.227,14.876 33.227,33.227 z"
             fill="#00883a"
             id="path6" />
          <path
             d="m 585.931,383.618 c 0,18.351 -14.876,33.227 -33.227,33.227 -18.351,0 -33.227,-14.876 -33.227,-33.227 0,-18.351 14.876,-33.227 33.227,-33.227 18.351,0 33.227,14.876 33.227,33.227 z"
             fill="#00883a"
             id="path7" />
          <path
             d="m 789.735,445.63 c -9.571,-7.454 -20.645,-12.743 -32.458,-15.503 -8.89,-2.593 -18.076,-4.029 -27.333,-4.271 -9.279,-0.02 -18.503,1.421 -27.334,4.271 -8.846,2.358 -17.304,5.983 -25.112,10.763 -0.513,0.598 -0.982,1.195 -1.538,1.751 12.421,3.342 24.04,9.152 34.167,17.083 7.991,5.832 12.656,15.178 12.514,25.07 v 7.602 h 73.757 v -33.441 c 0.128,-5.272 -2.368,-10.264 -6.663,-13.325 z"
             fill="#00883a"
             id="path8" />
          <path
             d="m 560.093,484.794 c 0.009,-9.61 4.414,-18.689 11.958,-24.643 l 0.513,-0.427 0.555,-0.384 c 10.242,-7.286 21.571,-12.908 33.569,-16.657 -0.855,-0.897 -1.623,-1.836 -2.435,-2.776 -7.505,-4.394 -15.603,-7.687 -24.045,-9.78 -8.889,-2.597 -18.076,-4.032 -27.333,-4.271 -9.279,-0.017 -18.502,1.424 -27.333,4.271 -11.649,3.214 -22.637,8.463 -32.459,15.503 -4.206,3.154 -6.727,8.069 -6.833,13.325 v 33.441 h 73.843 z"
             fill="#00883a"
             id="path9" />
          <path
             d="m 574.87,518.021 v -33.227 c 0.02,-5.226 2.485,-10.142 6.662,-13.283 9.804,-7.07 20.798,-12.321 32.459,-15.503 8.826,-2.866 18.053,-4.308 27.333,-4.27 9.259,0.217 18.449,1.653 27.333,4.27 11.836,2.732 22.93,8.024 32.501,15.503 4.278,3.052 6.759,8.03 6.62,13.283 v 33.227 z"
             fill="#00883a"
             id="path10" />
          <path
             d="m 674.551,409.456 c 0,18.351 -14.876,33.227 -33.227,33.227 -18.351,0 -33.227,-14.876 -33.227,-33.227 0,-18.351 14.876,-33.227 33.227,-33.227 18.351,0 33.227,14.876 33.227,33.227 z"
             fill="#00883a"
             id="path11" />
        </g>
      </g>
    </g>
  </g>
</svg>

<svg width="1280" height="720" xmlns="http://www.w3.org/2000/svg" xmlns:xlink="http://www.w3.org/1999/xlink" overflow="hidden"><g><rect x="0" y="0" width="1280" height="720" fill="#FFFFFF"/><path d="M394 270.043C394 183.863 463.863 114 550.043 114L729.957 114C816.137 114 886 183.863 886 270.043L886 449.957C886 536.137 816.137 606 729.957 606L550.043 606C463.863 606 394 536.137 394 449.957Z" fill="#FCEEBD" fill-rule="evenodd"/><g><g><g><path d="M660.286 321.776 622.66 321.776C619.122 321.776 616.254 324.644 616.254 328.182 616.254 331.72 619.122 334.589 622.66 334.589L660.286 334.589C663.824 334.589 666.693 331.72 666.693 328.182 666.693 324.644 663.824 321.776 660.286 321.776Z" fill="#00883A"/><path d="M641.452 355.729C648.67 355.722 654.646 350.119 655.119 342.917L627.828 342.917C628.279 350.113 634.242 355.721 641.452 355.729Z" fill="#00883A"/><path d="M641.452 199.587 641.452 199.587C611.625 199.791 587.403 223.747 586.871 253.571L586.871 255.45C587.016 262 588.302 268.475 590.672 274.583 592.879 280.29 596.09 285.555 600.153 290.129 605.218 296.525 609.518 303.491 612.966 310.885 613.682 312.308 615.131 313.213 616.724 313.234L666.266 313.234C667.858 313.213 669.307 312.308 670.024 310.885 673.475 303.493 677.775 296.527 682.836 290.129 686.873 285.543 690.069 280.281 692.275 274.583 694.58 268.531 695.865 262.137 696.076 255.664L696.076 253.784C695.635 223.871 671.368 199.793 641.452 199.587ZM683.477 255.108C683.3 260.151 682.29 265.13 680.487 269.843 678.804 274.075 676.39 277.978 673.355 281.374 668.557 287.189 664.444 293.538 661.098 300.294L621.849 300.294C618.487 293.537 614.36 287.188 609.549 281.374 606.527 277.976 604.128 274.073 602.459 269.843 600.657 265.13 599.647 260.151 599.47 255.108L599.47 253.571C599.864 230.627 618.505 212.194 641.452 212.058L641.452 212.058C664.407 212.194 683.06 230.62 683.477 253.571Z" fill="#00883A"/><path d="M620.867 267.451 643.459 223.333 643.459 248.873 666.906 244.218 643.459 287.396 643.459 262.326 620.867 267.451Z" fill="#00883A"/><path d="M763.171 383.618C763.171 401.969 748.295 416.845 729.944 416.845 711.593 416.845 696.717 401.969 696.717 383.618 696.717 365.267 711.593 350.391 729.944 350.391 748.295 350.391 763.171 365.267 763.171 383.618Z" fill="#00883A"/><path d="M585.931 383.618C585.931 401.969 571.055 416.845 552.704 416.845 534.353 416.845 519.477 401.969 519.477 383.618 519.477 365.267 534.353 350.391 552.704 350.391 571.055 350.391 585.931 365.267 585.931 383.618Z" fill="#00883A"/><path d="M789.735 445.63C780.164 438.176 769.09 432.887 757.277 430.127 748.387 427.534 739.201 426.098 729.944 425.856 720.665 425.836 711.441 427.277 702.61 430.127 693.764 432.485 685.306 436.11 677.498 440.89 676.985 441.488 676.516 442.085 675.96 442.641 688.381 445.983 700 451.793 710.127 459.724 718.118 465.556 722.783 474.902 722.641 484.794L722.641 492.396 796.398 492.396 796.398 458.955C796.526 453.683 794.03 448.691 789.735 445.63Z" fill="#00883A"/><path d="M560.093 484.794C560.102 475.184 564.507 466.105 572.051 460.151L572.564 459.724 573.119 459.34C583.361 452.054 594.69 446.432 606.688 442.683 605.833 441.786 605.065 440.847 604.253 439.907 596.748 435.513 588.65 432.22 580.208 430.127 571.319 427.53 562.132 426.095 552.875 425.856 543.596 425.839 534.373 427.28 525.542 430.127 513.893 433.341 502.905 438.59 493.083 445.63 488.877 448.784 486.356 453.699 486.25 458.955L486.25 492.396 560.093 492.396Z" fill="#00883A"/><path d="M574.87 518.021 574.87 484.794C574.89 479.568 577.355 474.652 581.532 471.511 591.336 464.441 602.33 459.19 613.991 456.008 622.817 453.142 632.044 451.7 641.324 451.738 650.583 451.955 659.773 453.391 668.657 456.008 680.493 458.74 691.587 464.032 701.158 471.511 705.436 474.563 707.917 479.541 707.778 484.794L707.778 518.021Z" fill="#00883A"/><path d="M674.551 409.456C674.551 427.807 659.675 442.683 641.324 442.683 622.973 442.683 608.097 427.807 608.097 409.456 608.097 391.105 622.973 376.229 641.324 376.229 659.675 376.229 674.551 391.105 674.551 409.456Z" fill="#00883A"/></g></g></g></g></svg>
